public/images/farms/balbt-bnb.svg

<svg width="160" height="160" viewBox="0 0 160 160" fill="none" xmlns="http://www.w3.org/2000/svg">
<g clip-path="url(#clip0)">
<path d="M48.045 119.028C44.8667 131.172 63.0449 146.449 88.6472 153.149C114.25 159.849 137.581 155.436 140.759 143.291C143.937 131.146 125.759 115.87 100.157 109.169C74.5546 102.469 51.2233 106.883 48.045 119.028Z" fill="#606063"/>
<path d="M136.924 149.273L152.346 132.988L42.9922 104.369L48.7128 126.187L136.924 149.273Z" fill="#606063"/>
<path d="M49.9337 108.293L8.07245 97.338C6.25796 96.8632 4.41259 97.9924 4.00962 99.8242L3.54142 101.953C2.60839 106.194 5.11954 110.433 9.28748 111.653L51.0994 123.892L49.9337 108.293Z" fill="#606063"/>
<path d="M43.2026 98.7096C39.5089 112.824 61.5267 130.811 92.3808 138.886C123.235 146.96 151.241 142.064 154.935 127.95C158.629 113.836 136.611 95.8488 105.757 87.7742C74.9028 79.6996 46.8963 84.5955 43.2026 98.7096Z" fill="url(#paint0_linear)"/>
<path fill-rule="evenodd" clip-rule="evenodd" d="M127.673 123.286C134.771 128.506 138.919 134.152 139.538 139.157L142.516 138.789C141.744 132.551 136.779 126.258 129.45 120.869C122.061 115.434 112.011 110.721 100.537 107.718C89.0628 104.716 77.9927 103.901 68.888 105.019C59.8593 106.128 52.4479 109.182 48.7196 114.242L51.1348 116.021C54.1263 111.961 60.5082 109.071 69.2536 107.997C77.9231 106.933 88.6081 107.698 99.7773 110.621C110.946 113.544 120.636 118.111 127.673 123.286Z" fill="#606063"/>
<path fill-rule="evenodd" clip-rule="evenodd" d="M56.7343 118.739C48.0136 111.615 44.7365 104.698 46.1049 99.4692C47.4733 94.2403 53.7186 89.8155 64.8112 87.8763C75.6178 85.9872 89.8893 86.7226 104.997 90.6764C120.105 94.6302 132.908 100.98 141.403 107.921C150.124 115.045 153.401 121.962 152.033 127.191C150.664 132.42 144.419 136.844 133.326 138.784C122.52 140.673 108.248 139.937 93.1403 135.984C78.0323 132.03 65.2301 125.68 56.7343 118.739ZM92.3808 138.886C61.5267 130.811 39.5089 112.824 43.2026 98.7096C46.8963 84.5955 74.9028 79.6996 105.757 87.7742C136.611 95.8488 158.629 113.836 154.935 127.95C151.241 142.064 123.235 146.96 92.3808 138.886Z" fill="#979797"/>
<path fill-rule="evenodd" clip-rule="evenodd" d="M45.1673 124.049L40.2305 104.926L43.1352 104.176L48.0721 123.299L45.1673 124.049Z" fill="url(#paint1_linear)"/>
<path fill-rule="evenodd" clip-rule="evenodd" d="M43.4691 106.189C43.4241 106.041 43.3812 105.893 43.3406 105.746C43.2656 105.473 43.1983 105.2 43.1386 104.929L42.997 104.389C42.9948 104.38 43.0025 104.372 43.0109 104.375C43.019 104.377 43.0266 104.37 43.0251 104.362C43.0236 104.353 43.0222 104.345 43.0207 104.337C42.9732 104.072 42.9333 103.807 42.9009 103.543C42.8931 103.479 42.8857 103.416 42.8788 103.352C42.8065 102.689 42.7824 102.031 42.8078 101.378C42.8079 101.378 42.8079 101.378 42.8079 101.377C42.8432 100.475 42.9734 99.5849 43.2025 98.7095C46.8962 84.5954 74.9027 79.6994 105.757 87.774C136.611 95.8486 158.629 113.836 154.935 127.95C154.706 128.826 154.383 129.666 153.972 130.469C153.972 130.469 153.972 130.47 153.972 130.47C153.528 131.338 152.981 132.163 152.337 132.945C152.332 132.951 152.326 132.958 152.321 132.964C152.319 132.967 152.318 132.969 152.318 132.972C152.318 132.977 152.322 132.982 152.327 132.983C152.332 132.984 152.335 132.989 152.336 132.993C152.336 132.996 152.335 133 152.333 133.002L151.725 133.644C151.655 133.72 151.584 133.795 151.511 133.87L150.275 135.175L150.273 135.177L138.793 147.299C131.986 156.33 111.197 159.051 88.6472 153.149C66.3446 147.312 49.6757 134.967 47.8505 123.854C47.7571 123.285 47.3667 122.8 46.8135 122.639L10.1271 111.91C5.98342 110.698 3.4722 106.499 4.36483 102.275L4.82393 100.103C5.21371 98.2581 7.06553 97.1133 8.88976 97.589L43.1386 106.52C43.3391 106.573 43.5217 106.39 43.4691 106.189ZM39.8119 102.553C39.7482 101.009 39.9029 99.4681 40.3002 97.9499C42.6255 89.0648 52.2303 83.9845 63.7779 81.9658C75.6114 79.8971 90.7702 80.751 106.516 84.8718C122.262 88.9926 135.896 95.6738 145.199 103.274C154.277 110.691 160.162 119.825 157.837 128.71C157.28 130.839 156.285 132.774 154.936 134.499C154.821 134.697 154.679 134.887 154.511 135.065L153.923 135.686C153.92 135.689 153.916 135.693 153.913 135.697C153.836 135.779 153.759 135.861 153.68 135.943C153.677 135.946 153.673 135.95 153.67 135.953L141.082 149.246C136.911 154.652 129.056 157.706 119.984 158.802C110.684 159.926 99.4667 159.082 87.8877 156.051C76.4351 153.054 66.3397 148.366 58.8095 142.91C51.73 137.78 46.4882 131.648 45.0667 125.253L9.28503 114.789C3.63618 113.137 0.212785 107.413 1.42965 101.655L1.88875 99.4823C2.63251 95.9628 6.16596 93.7783 9.64679 94.6861L39.8119 102.553Z" fill="url(#paint2_linear)"/>
<circle cx="57" cy="29" r="29" fill="#F0B90B"/>
<path d="M46.1846 28.9998L41.7476 33.4676L37.2798 28.9998L41.7476 24.532L46.1846 28.9998ZM56.9998 18.1846L64.6413 25.8261L69.1091 21.3583L61.4676 13.7476L56.9998 9.27979L52.532 13.7476L44.9213 21.3583L49.3891 25.8261L56.9998 18.1846ZM72.252 24.532L67.815 28.9998L72.2828 33.4676L76.7198 28.9998L72.252 24.532ZM56.9998 39.815L49.3583 32.1735L44.9213 36.6413L52.5628 44.2828L56.9998 48.7198L61.4676 44.252L69.1091 36.6105L64.6413 32.1735L56.9998 39.815ZM56.9998 33.4676L61.4676 28.9998L56.9998 24.532L52.532 28.9998L56.9998 33.4676Z" fill="#FFFDFA"/>
<g style="mix-blend-mode:multiply" opacity="0.1">
<path fill-rule="evenodd" clip-rule="evenodd" d="M57 55C71.3594 55 83 43.3594 83 29C83 14.6406 71.3594 3 57 3C42.6406 3 31 14.6406 31 29C31 43.3594 42.6406 55 57 55ZM57 58C73.0163 58 86 45.0163 86 29C86 12.9837 73.0163 0 57 0C40.9837 0 28 12.9837 28 29C28 45.0163 40.9837 58 57 58Z" fill="#191326"/>
</g>
<circle cx="106.5" cy="72.5" r="43.5" fill="white"/>
<path fill-rule="evenodd" clip-rule="evenodd" d="M75.8711 53.9001L87.212 60.4478C87.7768 59.9117 88.5402 59.5828 89.3804 59.5828C89.9049 59.5828 90.3993 59.7109 90.8343 59.9376L103.544 37.9229L75.8711 53.9001ZM75.052 55.2927L86.3634 61.8234C86.2767 62.1114 86.2301 62.4168 86.2301 62.7331C86.2301 63.8494 86.8107 64.8302 87.6865 65.3897L75.052 87.2733V55.2927ZM90.1881 79.0744V65.779C90.7659 65.6261 91.2787 65.3133 91.6761 64.8906L104.492 72.2896V72.3828L91.5621 79.8476C91.1826 79.4833 90.7121 79.213 90.1881 79.0744ZM88.5726 79.0745V67.0861L76.026 88.8173L86.3208 82.8737C86.2615 82.6323 86.2301 82.3799 86.2301 82.1203C86.2301 80.6597 87.2241 79.4312 88.5726 79.0745ZM87.0972 84.2909L75.854 90.7822L103.199 106.57L90.7278 84.9688C90.3193 85.1623 89.8625 85.2706 89.3804 85.2706C88.4819 85.2706 87.6711 84.8944 87.0972 84.2909ZM91.9781 83.9032L104.492 105.577L104.492 74.2483L92.4026 81.2278C92.486 81.5108 92.5308 81.8103 92.5308 82.1203C92.5308 82.7821 92.3267 83.3962 91.9781 83.9032ZM104.492 70.4242L92.4444 63.4688C92.5009 63.2328 92.5308 62.9864 92.5308 62.7331C92.5308 62.1189 92.355 61.5458 92.051 61.0612L104.492 39.5136L104.492 70.4242ZM106.215 36.6184L106.189 36.5732L106.163 36.6184L106.215 36.6184ZM119.834 62.7331C119.834 62.9884 119.864 63.2366 119.922 63.4743L107.884 70.424V39.5091L120.321 61.0499C120.012 61.5368 119.834 62.1141 119.834 62.7331ZM107.884 72.2895L120.692 64.8947C121.089 65.3152 121.6 65.6266 122.176 65.7789V79.0745C121.654 79.2126 121.185 79.4814 120.807 79.8437L107.884 72.3829V72.2895ZM119.964 81.2225L107.884 74.2484L107.884 105.582L120.394 83.914C120.041 83.405 119.834 82.7868 119.834 82.1203C119.834 81.8083 119.879 81.507 119.964 81.2225ZM121.648 84.9739L109.186 106.558L136.516 90.779L125.271 84.2868C124.697 84.8927 123.885 85.2706 122.984 85.2706C122.506 85.2706 122.053 85.1642 121.648 84.9739ZM126.045 82.8682L136.354 88.8198L123.792 67.062V79.0744C125.14 79.4311 126.135 80.6596 126.135 82.1203C126.135 82.378 126.104 82.6285 126.045 82.8682ZM137.313 87.2494L124.688 65.3833C125.558 64.8227 126.135 63.8452 126.135 62.7331C126.135 62.4188 126.089 62.1152 126.003 61.8287L137.313 55.299V87.2494ZM136.499 53.9033L125.157 60.4517C124.592 59.9133 123.826 59.5828 122.984 59.5828C122.464 59.5828 121.973 59.7089 121.541 59.9321L108.841 37.9348L136.499 53.9033ZM106.388 108.174L106.457 108.054H105.921L105.997 108.186L106.182 108.292L106.388 108.174Z" fill="#0A4593"/>
<g style="mix-blend-mode:multiply" opacity="0.2">
<path fill-rule="evenodd" clip-rule="evenodd" d="M106.5 113.163C128.958 113.163 147.163 94.9576 147.163 72.5C147.163 50.0424 128.958 31.837 106.5 31.837C84.0424 31.837 65.837 50.0424 65.837 72.5C65.837 94.9576 84.0424 113.163 106.5 113.163ZM106.5 116C130.524 116 150 96.5244 150 72.5C150 48.4756 130.524 29 106.5 29C82.4756 29 63 48.4756 63 72.5C63 96.5244 82.4756 116 106.5 116Z" fill="#191326"/>
</g>
</g>
<defs>
<linearGradient id="paint0_linear" x1="105.757" y1="87.7742" x2="92.3808" y2="138.886" gradientUnits="userSpaceOnUse">
<stop stop-color="#404042"/>
<stop offset="1" stop-color="#48484B"/>
</linearGradient>
<linearGradient id="paint1_linear" x1="46.5673" y1="105.096" x2="41.7353" y2="123.129" gradientUnits="userSpaceOnUse">
<stop stop-color="#404042"/>
<stop offset="1" stop-color="#48484B"/>
</linearGradient>
<linearGradient id="paint2_linear" x1="73.4948" y1="80.1687" x2="89.0896" y2="164.62" gradientUnits="userSpaceOnUse">
<stop stop-color="#404042"/>
<stop offset="1" stop-color="#48484B"/>
</linearGradient>
<clipPath id="clip0">
<rect width="160" height="160" fill="white"/>
</clipPath>
</defs>
</svg>

<svg xmlns="http://www.w3.org/2000/svg" width="160" height="160" fill="none"  xmlns:v="https://vecta.io/nano"><g clip-path="url(#D)"><g fill="#606063"><path d="M48.045 119.028c-3.178 12.144 15 27.421 40.602 34.121s48.934 2.287 52.112-9.858-15-27.421-40.602-34.122-48.934-2.286-52.112 9.859z"/><path d="M136.924 149.273l15.422-16.285-109.354-28.619 5.721 21.818 88.211 23.086z"/><path d="M49.934 108.293L8.072 97.338c-1.814-.475-3.66.654-4.063 2.486l-.468 2.129a8.26 8.26 0 0 0 5.746 9.7l41.812 12.239-1.166-15.599z"/></g><path d="M43.203 98.71c-3.694 14.114 18.324 32.101 49.178 40.176s58.86 3.178 62.554-10.936-18.324-32.101-49.178-40.176-58.861-3.179-62.554 10.935z" fill="url(#A)"/><g fill-rule="evenodd"><path d="M127.673 123.286c7.098 5.22 11.246 10.866 11.865 15.871l2.978-.368c-.772-6.238-5.737-12.531-13.066-17.92-7.389-5.435-17.439-10.148-28.913-13.151s-22.544-3.817-31.649-2.699c-9.029 1.109-16.44 4.163-20.168 9.223l2.415 1.779c2.992-4.06 9.373-6.95 18.119-8.024 8.67-1.064 19.354-.299 30.524 2.624s20.859 7.49 27.896 12.665z" fill="#606063"/><path d="M56.734 118.739c-8.721-7.124-11.998-14.041-10.629-19.27s7.614-9.654 18.706-11.593c10.807-1.889 25.078-1.154 40.186 2.8s27.911 10.304 36.406 17.245c8.721 7.124 11.998 14.041 10.63 19.27s-7.614 9.653-18.707 11.593c-10.806 1.889-25.078 1.153-40.186-2.8s-27.91-10.304-36.406-17.245zm35.646 20.147c-30.854-8.075-52.872-26.062-49.178-40.176s31.7-19.01 62.554-10.935 52.872 26.062 49.178 40.176-31.7 19.01-62.554 10.936z" fill="#979797"/><path d="M45.167 124.049l-4.937-19.123 2.905-.75 4.937 19.123-2.905.75z" fill="url(#B)"/><path d="M43.469 106.189l-.128-.443-.202-.817-.142-.54c.022-.012.03-.019.028-.027l-.004-.025-.12-.794-.022-.191c-.072-.663-.096-1.321-.071-1.974.035-.903.166-1.793.395-2.668 3.694-14.114 31.7-19.01 62.555-10.936s52.872 26.062 49.178 40.176a12.4 12.4 0 0 1-.963 2.519 13.7 13.7 0 0 1-1.635 2.476l-.016.019c.011.02.014.025.015.029l-.611.651-12.932 13.655c-6.807 9.031-27.596 11.752-50.146 5.85-22.303-5.837-38.971-18.182-40.797-29.295-.093-.569-.484-1.054-1.037-1.215L10.127 111.91a8.26 8.26 0 0 1-5.762-9.635l.459-2.172c.39-1.845 2.242-2.99 4.066-2.514l34.249 8.931a.27.27 0 0 0 .331-.331zm-3.657-3.636c-.064-1.544.091-3.085.488-4.603 2.325-8.885 11.93-13.965 23.478-15.984 11.834-2.069 26.992-1.215 42.738 2.906s29.38 10.802 38.683 18.402c9.078 7.417 14.963 16.551 12.638 25.436-.557 2.129-1.552 4.064-2.901 5.789a3.08 3.08 0 0 1-.425.566l-13.429 14.181c-4.171 5.406-12.026 8.46-21.098 9.556-9.3 1.124-20.517.28-32.096-2.751-11.453-2.997-21.548-7.685-29.078-13.141-7.08-5.13-12.321-11.262-13.743-17.657L9.285 114.789a11.26 11.26 0 0 1-7.855-13.134l.459-2.173c.744-3.519 4.277-5.704 7.758-4.796l30.165 7.867z" fill="url(#C)"/></g><circle cx="57" cy="29" r="29" fill="#f0b90b"/><path d="M46.185 29l-4.437 4.468L37.28 29l4.468-4.468L46.185 29zM57 18.185l7.642 7.642 4.468-4.468-7.642-7.611L57 9.28 44.921 21.358l4.468 4.468L57 18.185zm15.252 6.347L67.815 29l4.468 4.468L76.72 29l-4.468-4.468zM57 39.815l-7.642-7.642-4.437 4.468L57 48.72l12.109-12.109-4.468-4.437L57 39.815zm0-6.347L61.468 29 57 24.532 52.532 29 57 33.468z" fill="#fffdfa"/><g style="mix-blend-mode:multiply" opacity=".1"><path fill-rule="evenodd" d="M57 55c14.359 0 26-11.641 26-26S71.359 3 57 3 31 14.641 31 29s11.641 26 26 26zm0 3c16.016 0 29-12.984 29-29S73.016 0 57 0 28 12.984 28 29s12.984 29 29 29z" fill="#191326"/></g><circle cx="106.5" cy="72.5" r="43.5" fill="#fff"/><path fill-rule="evenodd" d="M75.871 53.9l11.341 6.548a3.14 3.14 0 0 1 2.168-.865c.525 0 1.019.128 1.454.355l12.71-22.015L75.871 53.9zm-.819 1.393l11.311 6.531a3.15 3.15 0 0 0-.133.91c0 1.116.581 2.097 1.456 2.657L75.052 87.273V55.293zm15.136 23.782V65.779a3.15 3.15 0 0 0 1.488-.888l12.816 7.399v.093l-12.93 7.465c-.38-.364-.85-.635-1.374-.773zm-1.616 0V67.086L76.026 88.817l10.295-5.944c-.059-.241-.091-.494-.091-.753 0-1.461.994-2.689 2.343-3.046zm-1.475 5.216l-11.243 6.491 27.345 15.788-12.471-21.601a3.14 3.14 0 0 1-3.631-.678zm4.881-.388l12.514 21.674V74.248l-12.089 6.98c.083.283.128.582.128.892 0 .662-.204 1.276-.553 1.783zm12.514-13.479l-12.048-6.955c.056-.236.086-.482.086-.736 0-.614-.176-1.187-.48-1.672l12.441-21.548v30.911zm1.723-33.806l-.026-.045-.026.045h.052zm13.619 26.115c0 .255.03.504.088.741l-12.038 6.95V39.509l12.437 21.541a3.13 3.13 0 0 0-.487 1.683zm-11.95 9.556l12.808-7.395a3.15 3.15 0 0 0 1.484.884v13.296a3.14 3.14 0 0 0-1.369.769l-12.923-7.461v-.093zm12.08 8.933l-12.08-6.974v31.334l12.51-21.668c-.353-.509-.56-1.127-.56-1.794a3.13 3.13 0 0 1 .13-.898zm1.684 3.751l-12.462 21.584 27.33-15.779-11.245-6.492a3.14 3.14 0 0 1-2.287.984c-.478 0-.931-.106-1.336-.297zm4.397-2.106l10.309 5.952-12.562-21.758v12.012c1.348.357 2.343 1.585 2.343 3.046 0 .258-.031.508-.09.748zm11.268 4.381l-12.625-21.866a3.15 3.15 0 0 0 1.447-2.65 3.14 3.14 0 0 0-.132-.904l11.31-6.53v31.95zm-.814-33.346l-11.342 6.548a3.14 3.14 0 0 0-2.173-.869c-.52 0-1.011.126-1.443.349l-12.7-21.997 27.658 15.968zm-30.111 54.271l.069-.12h-.536l.076.132.185.106.206-.118z" fill="#0a4593"/><g style="mix-blend-mode:multiply" opacity=".2"><path fill-rule="evenodd" d="M106.5 113.163c22.458 0 40.663-18.205 40.663-40.663S128.958 31.837 106.5 31.837 65.837 50.042 65.837 72.5s18.205 40.663 40.663 40.663zm0 2.837c24.024 0 43.5-19.476 43.5-43.5S130.524 29 106.5 29 63 48.476 63 72.5 82.476 116 106.5 116z" fill="#191326"/></g></g><defs><linearGradient id="A" x1="105.757" y1="87.774" x2="92.381" y2="138.886" gradientUnits="userSpaceOnUse"><stop stop-color="#404042"/><stop offset="1" stop-color="#48484b"/></linearGradient><linearGradient id="B" x1="46.567" y1="105.096" x2="41.735" y2="123.129" gradientUnits="userSpaceOnUse"><stop stop-color="#404042"/><stop offset="1" stop-color="#48484b"/></linearGradient><linearGradient id="C" x1="73.495" y1="80.169" x2="89.09" y2="164.62" gradientUnits="userSpaceOnUse"><stop stop-color="#404042"/><stop offset="1" stop-color="#48484b"/></linearGradient><clipPath id="D"><path fill="#fff" d="M0 0h160v160H0z"/></clipPath></defs></svg>
